X:034
%%topmargin 3cm
T:Quindaro
C:Arranged by N. F. Tolman
B:The Nelson Music Collection
N:Newton F. Tolman & K. Dep. Gilbert
Z:Transcribed by Ralph Palmer
R:Hornpipe
L:1/16
M:2/4
K:G
gf | g2 (G2 G2) BG | FACF G2Bc | dBed cBAG | FA (D2 D2) gf |
g2 (G2 G2) BG | FADF G2AB | cedc BAGF | G2G2 G2 ::
dc | B.gBc d2cB | c.aAB c2BA | Bded cBAG | FA (D2 D2) (ga) |
.b(gfg) d(gfg) | .b(gfg) d(gfg) | edcB AGFA | G2B2 G2 :|]

